styles/1/Numix/64/places/blue-folder-projects.svg

<?xml version="1.0" encoding="UTF-8" standalone="no"?>
<!-- Created with Inkscape (http://www.inkscape.org/) -->

<svg
   xmlns:dc="http://purl.org/dc/elements/1.1/"
   xmlns:cc="http://creativecommons.org/ns#"
   xmlns:rdf="http://www.w3.org/1999/02/22-rdf-syntax-ns#"
   xmlns:svg="http://www.w3.org/2000/svg"
   xmlns="http://www.w3.org/2000/svg"
   xmlns:sodipodi="http://sodipodi.sourceforge.net/DTD/sodipodi-0.dtd"
   xmlns:inkscape="http://www.inkscape.org/namespaces/inkscape"
   width="64"
   height="64"
   id="svg2"
   version="1.1"
   inkscape:version="0.91 r"
   sodipodi:docname="blue-folder-projects.svg"
   inkscape:export-filename="/media/Data/Main/Visuals/Icons/Numix/Desktop/repos/numix-wiki/Gjorgi/Numix-folders/48/New/folder-144.png"
   inkscape:export-xdpi="270"
   inkscape:export-ydpi="270">
  <defs
     id="defs4" />
  <sodipodi:namedview
     id="base"
     pagecolor="#ffffff"
     bordercolor="#666666"
     borderopacity="1.0"
     inkscape:pageopacity="0.0"
     inkscape:pageshadow="2"
     inkscape:zoom="7.4607353"
     inkscape:cx="21.199246"
     inkscape:cy="24.506928"
     inkscape:document-units="px"
     inkscape:current-layer="layer1"
     showgrid="true"
     inkscape:window-width="1280"
     inkscape:window-height="998"
     inkscape:window-x="0"
     inkscape:window-y="0"
     inkscape:window-maximized="1"
     showguides="true"
     inkscape:guide-bbox="true">
    <inkscape:grid
       type="xygrid"
       id="grid2985"
       empspacing="5"
       visible="true"
       enabled="true"
       snapvisiblegridlinesonly="true" />
  </sodipodi:namedview>
  <metadata
     id="metadata7">
    <rdf:RDF>
      <cc:Work
         rdf:about="">
        <dc:format>image/svg+xml</dc:format>
        <dc:type
           rdf:resource="http://purl.org/dc/dcmitype/StillImage" />
        <dc:title />
      </cc:Work>
    </rdf:RDF>
  </metadata>
  <g
     inkscape:label="Layer 1"
     inkscape:groupmode="layer"
     id="layer1"
     transform="translate(0,-988.3622)">
    <path
       style="font-size:medium;font-style:normal;font-variant:normal;font-weight:normal;font-stretch:normal;text-indent:0;text-align:start;text-decoration:none;line-height:normal;letter-spacing:normal;word-spacing:normal;text-transform:none;direction:ltr;block-progression:tb;writing-mode:lr-tb;text-anchor:start;baseline-shift:baseline;color:#000000;fill:#42a5f5;fill-opacity:1;fill-rule:nonzero;stroke:none;stroke-width:2.28612947;marker:none;visibility:visible;display:inline;overflow:visible;enable-background:accumulate;font-family:Sans;-inkscape-font-specification:Sans"
       d="M 6.0625 10 C 4.9330852 10.1109 3.9815877 11.17767 4 12.3125 L 4 51.6875 C 3.986 52.9021 5.097925 54.0139 6.3125 54 L 57.6875 54 C 58.902076 54.014 60.013966 52.9021 60 51.6875 L 60 16.3125 C 60.014 15.0979 58.902076 13.9861 57.6875 14 L 38 14 L 38 12.3125 C 38.01375 11.11857 36.943717 10.019 35.75 10 L 6.3125 10 C 6.22925 10 6.14575 9.9999 6.0625 10 z M 22.3125 23.90625 C 23.08336 23.89425 23.8636 23.9925 24.625 24.0625 C 28.33263 24.4827 32.01733 25.92605 34.75 28.53125 C 35.59619 28.37125 36.45429 28.16925 37.3125 28.03125 C 38.57799 27.86445 39.86695 28.42545 40.6875 29.40625 C 41.70387 30.66525 42.71902 31.88845 43.71875 33.15625 C 44.2283 33.81885 43.876 34.8985 43.0625 35.0625 C 41.688 35.3111 40.27775 35.5054 38.90625 35.75 C 38.98888 36.8744 38.73684 38.0337 38.0625 38.9375 C 37.30589 39.9971 36.032 40.62325 34.75 40.78125 C 34.71202 41.75045 34.8075 42.73715 34.8125 43.71875 C 34.8059 44.18475 34.90509 44.668 34.78125 45.125 C 34.57772 45.8196 33.67969 46.2188 33.03125 45.875 C 31.62263 45.1484 30.21123 44.45555 28.8125 43.71875 C 27.63396 43.08895 26.8438 41.836 26.8125 40.5 C 26.8115 39.7356 26.7971 38.91845 26.8125 38.15625 C 26.85158 37.97365 26.70027 37.94575 26.59375 37.84375 C 23.68774 35.65395 21.69232 32.40895 20.625 28.96875 C 20.20542 27.46915 19.83187 25.84605 20.0625 24.28125 C 20.79603 24.02665 21.54164 23.9615 22.3125 23.9375 L 22.3125 23.90625 z M 26.9375 26.78125 C 26.04179 26.86325 25.15181 27.28565 24.53125 28.03125 C 23.29011 29.52345 23.5407 31.7582 25.03125 33 C 26.52181 34.2424 28.72762 33.9916 29.96875 32.5 C 31.20988 31.0082 30.9593 28.8049 29.46875 27.5625 C 28.72347 26.9417 27.83322 26.70125 26.9375 26.78125 z M 27.34375 28.34375 C 28.448319 28.34375 29.34375 29.239181 29.34375 30.34375 C 29.34375 31.448319 28.448319 32.34375 27.34375 32.34375 C 26.239181 32.34375 25.34375 31.448319 25.34375 30.34375 C 25.34375 29.239181 26.239181 28.34375 27.34375 28.34375 z M 41.25 37.5 C 41.35224 37.51 41.475 37.555 41.5625 37.625 C 42.31078 38.2422 43.07382 38.84715 43.8125 39.46875 C 44.18393 39.76615 43.98711 40.44125 43.53125 40.53125 C 43.16296 40.58925 42.80774 40.61225 42.4375 40.65625 C 42.8048 41.51005 43.17354 42.3293 43.53125 43.1875 C 43.70477 43.5941 43.30139 44.11925 42.875 44.03125 C 41.97017 43.83085 41.07068 43.571 40.15625 43.375 C 40.18985 43.743 40.2384 44.15805 40.25 44.53125 C 40.24398 44.98705 39.76509 45.3054 39.40625 45 C 38.66878 44.3916 37.82822 43.6747 37.09375 43.0625 C 36.73583 42.7767 36.8455 42.2005 37.28125 42.0625 C 38.95474 41.3539 40.20289 39.80905 40.59375 38.03125 C 40.63806 37.71025 40.94332 37.472 41.25 37.5 z "
       transform="translate(0,988.3622)"
       id="path3912" />
  </g>
</svg>

<!-- Created with Inkscape (http://www.inkscape.org/) -->
<svg xmlns="http://www.w3.org/2000/svg" viewBox="0 0 64 64">
 <g transform="translate(0,-988.3622)">
  <path d="m 6.06 10 c -1.129 0.111 -2.081 1.178 -2.063 2.313 l 0 39.38 c -0.014 1.215 1.098 2.326 2.313 2.313 l 51.38 0 c 1.215 0.014 2.326 -1.098 2.313 -2.313 l 0 -35.37 c 0.014 -1.215 -1.098 -2.326 -2.313 -2.313 l -19.688 0 l 0 -1.688 c 0.014 -1.194 -1.056 -2.294 -2.25 -2.313 l -29.438 0 c -0.083 0 -0.167 0 -0.25 0 z m 16.25 13.906 c 0.771 -0.012 1.551 0.086 2.313 0.156 c 3.708 0.42 7.392 1.864 10.125 4.469 c 0.846 -0.16 1.704 -0.362 2.563 -0.5 c 1.265 -0.167 2.554 0.394 3.375 1.375 c 1.016 1.259 2.032 2.482 3.03 3.75 c 0.51 0.663 0.157 1.742 -0.656 1.906 c -1.374 0.249 -2.785 0.443 -4.156 0.688 c 0.083 1.124 -0.169 2.284 -0.844 3.188 c -0.757 1.06 -2.031 1.686 -3.313 1.844 c -0.038 0.969 0.057 1.956 0.063 2.938 c -0.007 0.466 0.093 0.949 -0.031 1.406 c -0.204 0.695 -1.102 1.094 -1.75 0.75 c -1.409 -0.727 -2.82 -1.419 -4.219 -2.156 c -1.179 -0.63 -1.969 -1.883 -2 -3.219 c -0.001 -0.764 -0.015 -1.582 0 -2.344 c 0.039 -0.183 -0.112 -0.211 -0.219 -0.313 c -2.906 -2.19 -4.901 -5.435 -5.969 -8.875 c -0.42 -1.5 -0.793 -3.123 -0.563 -4.688 c 0.734 -0.255 1.479 -0.32 2.25 -0.344 l 0 -0.031 z m 4.625 2.875 c -0.896 0.082 -1.786 0.504 -2.406 1.25 c -1.241 1.492 -0.991 3.727 0.5 4.969 c 1.491 1.242 3.696 0.992 4.938 -0.5 c 1.241 -1.492 0.991 -3.695 -0.5 -4.938 c -0.745 -0.621 -1.636 -0.861 -2.531 -0.781 z m 0.406 1.563 c 1.105 0 2 0.895 2 2 c 0 1.105 -0.895 2 -2 2 c -1.105 0 -2 -0.895 -2 -2 c 0 -1.105 0.895 -2 2 -2 z m 13.906 9.156 c 0.102 0.01 0.225 0.055 0.313 0.125 c 0.748 0.617 1.511 1.222 2.25 1.844 c 0.371 0.297 0.175 0.972 -0.281 1.063 c -0.368 0.058 -0.724 0.081 -1.094 0.125 c 0.367 0.854 0.736 1.673 1.094 2.531 c 0.174 0.407 -0.23 0.932 -0.656 0.844 c -0.905 -0.2 -1.804 -0.46 -2.719 -0.656 c 0.034 0.368 0.082 0.783 0.094 1.156 c -0.006 0.456 -0.485 0.774 -0.844 0.469 c -0.737 -0.608 -1.578 -1.325 -2.313 -1.938 c -0.358 -0.286 -0.248 -0.862 0.188 -1 c 1.673 -0.709 2.922 -2.253 3.313 -4.03 c 0.044 -0.321 0.35 -0.559 0.656 -0.531 z" transform="translate(0,988.3622)" style="visibility:visible;fill:#42a5f5;fill-opacity:1;stroke:none;display:inline;color:#000;fill-rule:nonzero"/>
 </g>
</svg>
